img/plus.svg

<svg viewBox="0 0 448 448" xmlns="http://www.w3.org/2000/svg"><path d="m416 176h-144v-144a32 32 0 0 0 -32-32h-32a32 32 0 0 0 -32 32v144h-144a32 32 0 0 0 -32 32v32a32 32 0 0 0 32 32h144v144a32 32 0 0 0 32 32h32a32 32 0 0 0 32-32v-144h144a32 32 0 0 0 32-32v-32a32 32 0 0 0 -32-32z" fill="#fff"/></svg>

<svg xmlns="http://www.w3.org/2000/svg" viewBox="0 0 448 448"><defs><style>.cls-1{fill:#fff;}</style></defs><title>Ресурс 1</title><g id="Слой_2" data-name="Слой 2"><g id="Слой_1-2" data-name="Слой 1"><path class="cls-1" d="M416,176H272V32A32,32,0,0,0,240,0H208a32,32,0,0,0-32,32V176H32A32,32,0,0,0,0,208v32a32,32,0,0,0,32,32H176V416a32,32,0,0,0,32,32h32a32,32,0,0,0,32-32V272H416a32,32,0,0,0,32-32V208A32,32,0,0,0,416,176Z"/></g></g></svg>
